assets/icons/create.svg

<svg width="24" height="24" viewBox="0 0 24 24" fill="none" xmlns="http://www.w3.org/2000/svg">
<path d="M11 13H6C5.71667 13 5.47917 12.9042 5.2875 12.7125C5.09583 12.5208 5 12.2833 5 12C5 11.7167 5.09583 11.4792 5.2875 11.2875C5.47917 11.0958 5.71667 11 6 11H11V6C11 5.71667 11.0958 5.47917 11.2875 5.2875C11.4792 5.09583 11.7167 5 12 5C12.2833 5 12.5208 5.09583 12.7125 5.2875C12.9042 5.47917 13 5.71667 13 6V11H18C18.2833 11 18.5208 11.0958 18.7125 11.2875C18.9042 11.4792 19 11.7167 19 12C19 12.2833 18.9042 12.5208 18.7125 12.7125C18.5208 12.9042 18.2833 13 18 13H13V18C13 18.2833 12.9042 18.5208 12.7125 18.7125C12.5208 18.9042 12.2833 19 12 19C11.7167 19 11.4792 18.9042 11.2875 18.7125C11.0958 18.5208 11 18.2833 11 18V13Z" fill="black"/>
</svg>

<svg xmlns="http://www.w3.org/2000/svg" width="24" height="24" fill="none">
  <path fill="#000"
    d="M11 13H6a.97.97 0 0 1-.71-.29A.97.97 0 0 1 5 12c0-.28.1-.52.29-.71A.97.97 0 0 1 6 11h5V6c0-.28.1-.52.29-.71A.97.97 0 0 1 12 5a.97.97 0 0 1 1 1v5h5a.97.97 0 0 1 .71.29c.2.19.29.43.29.71s-.1.52-.29.71A.97.97 0 0 1 18 13h-5v5a.97.97 0 0 1-.29.71.97.97 0 0 1-.71.29.97.97 0 0 1-.71-.29A.97.97 0 0 1 11 18v-5Z" />
</svg>
